/* XPM */
static char *aaa7566c1c4f4b20e0cce4e5c9cc49253o6eVt6LKiojujm7[] = {
/* columns rows colors chars-per-pixel */
"64 64 22 1 ",
"  c #000001",
". c #794207",
"X c #374551",
"o c #514C4B",
"O c #595252",
"+ c #615A59",
"@ c #686160",
"# c #716867",
"$ c #716768",
"% c #706868",
"& c #786F6E",
"* c #8A4A07",
"= c #995208",
"- c #835015",
"; c #8C772E",
": c #8F8686",
"> c #CEBE85",
", c #DFDFDF",
"< c #E7E7E7",
"1 c #EFEFEF",
"2 c gray97",
"3 c white",
/* pixels */
"-------       -----------             ---        -----------    ",
" ---   XXXXXXX   ------   &&&&&&&&&&&&   ;;;;;;;;  -------  ;;;;",
"; - XXXXXXXXXXXXX  -   && %#        @@ &&   ;;;;;;; ----- ;;;;;;",
";; XXXXXXXXXXXXXXXX &&&%%   ::::::::   #%&&& ;;;;;;; --- ;;;;;;;",
";;  XXXXXXXXXXXXX   #%%  ::::::::::::::  %%#   ;;;;;; - ;;;;;;;;",
";;; XXXXXXXXXXXX &&    :::            :::    && ;;;;;   ;;;;;;;;",
";;; XXXXXXXXXX  &&%  :::  ,,,,,,,,,,,,  :::  %&&  ;;; X ;;;;;;;;",
";;; XXXXXXXXX &&&% :::  ,,<2222222222<,,  ::: @&&& ; XX ;;;;;;;;",
";;; XXXXXXXX  &&% ::  ,,<<223333333322<<,,  :: %%&  XXX ;;;;;;;;",
";; XXXXXXXX &    :: ,,<<2223333333333222<<,, ::    & XXX ;;;;;;;",
";;  XXXXXXX &&& :: ,12222333333333333332222<, :: %&& XXXX ;;;;;;",
"  X    XXX &&&% :  ,233333333333333333333332,  : %&&& XXXX   ;;;",
" XXX --   &&&% :: ,  3333333333333333333333  , :: %&&& XXXXX    ",
" XXX ----  &% ::     3333333333333333333333     :: @&  XXXXXX --",
" XXX --- &   ::   ** 3333333333333333333333 ==   ::   & XXXXX --",
" XXX --  &&% ::  *** 3333333333333333333333 ***  :: %&& XXXXX --",
" XXX    &&% ::   =** 3333333333333333333333 **=   :: %&& XXXX --",
"  X  ;; &&% ::  ===* 3333333333333333333333 *===  :: %&& XXX ---",
"- X  ;; &&% :: ====* 3333333333333333333333 *==== :: %&& XXX ---",
"-  - ;; &&% :: ====* 3333333333333333333333 *==== :: %&& XX ----",
"---- ;     ::  ==..* 3333333333333333333333 *..==  ::     X ----",
"-      @@@ :: ===.** 3333333333333333333333 **.=== :: @@@  -----",
"- XXXX @@@ :: ===.** 3333333333333333333333 **.=== :: @@@      -",
" XXXXX @@@ :: ==..** 3333333333333333333333 **..== :: @@@ XXXXX ",
"X XXXX @@@ :: =====* 3333333333333333333333 *===== :: @@@ XXXXXX",
"XX XXX @@@ :: **===* 3333333333333333333333 *===== :: @@@ XXXXXX",
"XX XXX @@@ :: *====* 3333333333333333333333 *===== :: @@@ XXXXXX",
"X XXXX @@@ :: =====* 3333333333333333333333 *===== :: @@@ XXXXXX",
" XXXX  @@@ :: =.*==* 3333333333333333333333 *===.= :: @@@ X     ",
";     ;     : ..*==* 3333333333333333333333 *===.. :     X ;;;;;",
";; -- ; $%% : .*===* 3333333333333333333333 *====. : @$&  ;;;;;;",
";;; --  %&& : .*===* 3333333333333333333333 *====. : %&& ;;;;;;;",
";;;;    &&& : =====* 3333333333333333333333 *===== : %&& ;;;;;;;",
";;;; X  &&& : =====* 3333333333333333333333 *===== : &&& ;;;;;;;",
";;;; XX &&& : == ==* 3333333333333333333333 *== == : &&& ;;;;;;;",
";;; XXX &&& : = = =* 3333333333333333333333 *= = = : &&& ;;;;;;;",
";; XXXX &&& : = = =* 3333333333333333333333 *= = = : &&&  ;;;;;;",
"; XXXX     :: = = =* 3333333333333333333333 *= = = ::      ;;;;;",
" XXXXX @@@ :: == ==* 3333333333333333333333 *== == :: @@@ -     ",
"X      @@@ :: =====* 3333333333333333333333 *===== :: @@@  XXXXX",
"XXX -  @@@ :: =====* 3333333333333333333333 *===== :: @@@ XXXXXX",
"XXXX X @@@ :: =====* 3333333333333333333333 *===== :: @@@ XXXXXX",
"XXXX X @@@ :: ====.* 3333333333333333333333 *.==== :: @@@ XXXXXX",
"XXXX X @@@ :: ===..* 3333333333333333333333 *..=== :: @@@ XXXXXX",
"XXXX   @@@ :: ===.** 3333333333333333333333 **.=== :: @@@ XXXXXX",
"XXX >>      : =====* 3333333333333333333333 *===== :      XXXXXX",
"X  >>>> %%& : =====* 3333333333333333333333 *===== : +%&   XXXXX",
" ; >>>> %&& : =====* 3333333333333333333333 *===== : %&& ;;     ",
";; >>>> &&& : =.*==* 3333333333333333333333 *==*.= : &&& ;;;;;;;",
";; >>>  &&& : =.*==* 3333333333333333333333 *==*.= : &&& ;;;;;;;",
";;      &&& : =.*==* 3333333333333333333333 *==*.= : &&& ;;;;;;;",
";;   ;; &&& : =..*=* 3333333333333333333333 *=*..= : &&& ;;;;;;;",
"; ;;;;; &&& : ==.*=* 3333333322222233333333 *=*.== : &&& ;;;;;;;",
"; ;;;;; &&& : ==.*=* 3333222222222222223333 *=*.== : &&& ;;;;;;;",
" ;;;;;; &&&   ====** 2222222222222222222222 **====   &&&  ;;;;;;",
" ;;;          ==****                        ****==              ",
"     &&&&%@@ & ***** &&&&&&&&&&&&&&&&&&&&&& ***** & @@@$&&& ----",
"---  &&&&&%% %#  *** &&&&&&&&&&&&&&&&&&&&&& ***  $# %%%&&&& ----",
"-- > &&&&&&&       *                        *       %&&&&&&   --",
"-- > &&&&&&& ooooo   &&&&&&&&&&&&&&&&&&&&&&   ooooo &&&&&&& > --",
"-- > &&&&&&&                                        &&&&&&& > --",
"-- > &&&&&&& ooooo+%&&&&&&&&&&&&&&&&&&&&&&&&@Oooooo &&&&&&& >  -",
"--   &&&&&&&                                        &&&&&&& >> -",
"---- &&&&&&& oooO%&&&&&&&&&&&&&&&&&&&&&&&&&&&&@Oooo &&&&&&&    -"
};