/* XPM */
static char *_b88d1e59e0749c7c9940357104f635fRxdePQ2it0fzo7vw[] = {
/* columns rows colors chars-per-pixel */
"64 64 11 1 ",
"  c black",
". c none",
"X c #FE0101",
"+ c #C65D12",
"@ c #D46617",
"# c #E26C19",
"$ c #DFA377",
"% c #E0A276",
"& c #2BA2E9",
"= c #E2AB83",
"- c white",
/* pixels */
"................................................................",
"................................................................",
"................................................................",
"...........................          ...........................",
"..........................  ########  ..........................",
"........................  ############  ........................",
"....................... ###@++####++@### .......................",
"....................... ####@+####+@#### .......................",
"...................... #####@++##++@##### ......................",
"...................... #+++##@+##+@##+++# ......................",
"....................   #@@++#@+##+@#++@@#   ....................",
"..................  XXX ##@+#@+##+@#+@## XXX  ..................",
"................  XX    ##@+#@+##+@#+@##    XX  ................",
"............... XX  @@@@ #@+#@+##+@#+@# @@@@  XX ...............",
".............  X  @@###@  #@+#+##+#+@#  @###@@  X  .............",
"............ XX @@#####@@ #@+#+##+#+@# @@#####@@ XX ............",
"........... XX ####@###++ ############ ++###@#### XX ...........",
"........... X ###@@###++@ ############ @++###@@### X ...........",
".......... X ###@@###++@#@  ########  @#@++###@@### X ..........",
"......... X ###@####++@###@@        @@###@++####@### X .........",
"........   ###@####++@######+@@@@@@+######@++####@###   ........",
"........  ####@####+@#######+@@##@@+#######@+####@####  ........",
".......   ####@###+@#######++@####@++#######@+###@####   .......",
".......  ####@@###+@#######+@@####@@+#######@+###@@####  .......",
".......  ####@####+@#######+@######@+#######@+####@####  .......",
".......  ####@####+@#######+@######@+#######@+####@####  .......",
"......  ####@@###+@########+@######@+########@+###@@####  ......",
"......  ####@####+@########+@######@+########@+####@####  ......",
"......  ####@####+@########+@######@+########@+####@####  ......",
"......  ####@####+@########+@######@+########@+####@####  ......",
"......  ####@###++@#######+@########@+#######@++###@####  ......",
"......  ####@###+@########+@########@+########@+###@####  ......",
".......  ###@###+@########+@########@+########@+###@###  .......",
".......  ###@###+@########+@########@+########@+###@###  .......",
".......  #######+@########+@########@+########@+#######  .......",
"....... X ######+@########+@########@+########@+###### X .......",
"....... X ######+@########+@########@+########@+###### X .......",
".......  X ######+@#######+@########@+#######@+###### X  .......",
".......  XX #####+@#######@##########@#######@+##### XX  .......",
"....... + X #####+@##########################@+##### X + .......",
".......  + X ####@############################@#### X +  .......",
"........ ++ X  ############          ############  X ++ ........",
"........ ##+ XX ########   ==========   ######## XX +## ........",
"......... ##+ XX  ##### ================ #####  XX +##  ........",
"......... ###+ XXX  #  ==================  #  XXX +###  ........",
".......... ###+  XXX      ============      XXX  +###  .........",
".......... ####++   XXXXXX            XXXXXX   ++#### ..........",
"........... ####+++   XXXXXXXXXXXXXXXXXXXX   +++#### ...........",
"............ ##### $$$    XXXXXXXXXXXX    $$% ##### ............",
"............  #### ==$%$$$            %%$$=== ####  ............",
"............. ### ========$$$$$$$$$%$$======== ###  ............",
"..............  # ============================ #  ..............",
"................  ===     ============     ===  ................",
".................  ===---& ========== &---===  .................",
"................... ===--&& ======== &&--===  ..................",
"....................   ==================   ....................",
".......................   ============   .......................",
"................................................................",
"................................................................",
"................................................................",
"................................................................",
"................................................................",
"................................................................",
"................................................................"
};